casedrop/img/search/icons/trash.svg

<svg width="17" height="17" viewBox="0 0 17 17" fill="none" xmlns="http://www.w3.org/2000/svg">
<path fill-rule="evenodd" clip-rule="evenodd" d="M5.94998 0.849609C5.49911 0.849609 5.06671 1.02872 4.74789 1.34753C4.42908 1.66634 4.24998 2.09874 4.24998 2.54961V4.24961H1.69998C1.47454 4.24961 1.25834 4.33916 1.09893 4.49857C0.939529 4.65797 0.849976 4.87418 0.849976 5.09961C0.849976 5.32504 0.939529 5.54124 1.09893 5.70065C1.25834 5.86006 1.47454 5.94961 1.69998 5.94961H2.45138C2.48198 6.23691 2.51768 6.59051 2.55338 6.98066C2.64688 8.00236 2.73868 9.24506 2.73868 10.1996C2.73868 11.4491 2.58313 13.1814 2.47093 14.2592C2.44607 14.4975 2.4715 14.7384 2.54556 14.9663C2.61963 15.1942 2.74068 15.404 2.9009 15.5821C3.06112 15.7603 3.25695 15.9029 3.47571 16.0006C3.69447 16.0984 3.93132 16.1491 4.17093 16.1496H12.829C13.0686 16.1491 13.3055 16.0984 13.5242 16.0006C13.743 15.9029 13.9388 15.7603 14.099 15.5821C14.2593 15.404 14.3803 15.1942 14.4544 14.9663C14.5285 14.7384 14.5539 14.4975 14.529 14.2592C14.4168 13.1814 14.2613 11.4491 14.2613 10.1996C14.2613 9.24506 14.3522 8.00236 14.4466 6.98066C14.4823 6.59051 14.518 6.23691 14.5486 5.94961H15.3C15.5254 5.94961 15.7416 5.86006 15.901 5.70065C16.0604 5.54124 16.15 5.32504 16.15 5.09961C16.15 4.87418 16.0604 4.65797 15.901 4.49857C15.7416 4.33916 15.5254 4.24961 15.3 4.24961H12.75V2.54961C12.75 2.09874 12.5709 1.66634 12.2521 1.34753C11.9332 1.02872 11.5008 0.849609 11.05 0.849609H5.94998ZM11.05 4.24961V2.54961H5.94998V4.24961H11.05ZM4.24658 6.82511C4.21683 6.50381 4.18708 6.20631 4.16073 5.94961H12.8392C12.809 6.24126 12.7807 6.5331 12.7542 6.82511C12.659 7.85531 12.5613 9.16261 12.5613 10.1996C12.5613 11.546 12.7262 13.3565 12.8375 14.4343V14.4403C12.8367 14.4428 12.8352 14.4452 12.8333 14.4471L12.8307 14.4496H4.16923C4.16623 14.4474 4.16388 14.4445 4.16243 14.4411V14.4343C4.27378 13.3565 4.43868 11.546 4.43868 10.1996C4.43868 9.16261 4.34093 7.85531 4.24658 6.82511ZM6.79998 6.79961C7.02541 6.79961 7.24161 6.88916 7.40102 7.04857C7.56042 7.20797 7.64998 7.42418 7.64998 7.64961V12.7496C7.64998 12.975 7.56042 13.1912 7.40102 13.3507C7.24161 13.5101 7.02541 13.5996 6.79998 13.5996C6.57454 13.5996 6.35834 13.5101 6.19894 13.3507C6.03953 13.1912 5.94998 12.975 5.94998 12.7496V7.64961C5.94998 7.42418 6.03953 7.20797 6.19894 7.04857C6.35834 6.88916 6.57454 6.79961 6.79998 6.79961ZM11.05 7.64961C11.05 7.42418 10.9604 7.20797 10.801 7.04857C10.6416 6.88916 10.4254 6.79961 10.2 6.79961C9.97454 6.79961 9.75834 6.88916 9.59894 7.04857C9.43953 7.20797 9.34998 7.42418 9.34998 7.64961V12.7496C9.34998 12.975 9.43953 13.1912 9.59894 13.3507C9.75834 13.5101 9.97454 13.5996 10.2 13.5996C10.4254 13.5996 10.6416 13.5101 10.801 13.3507C10.9604 13.1912 11.05 12.975 11.05 12.7496V7.64961Z" fill="#8B95AD"/>
</svg>

<svg width="17" height="17" fill="none" xmlns="http://www.w3.org/2000/svg"><path fill-rule="evenodd" clip-rule="evenodd" d="M5.95.85a1.7 1.7 0 00-1.7 1.7v1.7H1.7a.85.85 0 100 1.7h.751c.031.287.067.64.102 1.03.094 1.022.186 2.265.186 3.22 0 1.25-.156 2.981-.268 4.06a1.713 1.713 0 001.7 1.89h8.658a1.712 1.712 0 001.7-1.89c-.112-1.079-.268-2.81-.268-4.06 0-.955.091-2.198.186-3.22.035-.39.071-.743.102-1.03h.751a.85.85 0 000-1.7h-2.55v-1.7a1.7 1.7 0 00-1.7-1.7h-5.1zm5.1 3.4v-1.7h-5.1v1.7h5.1zM4.247 6.825c-.03-.321-.06-.619-.086-.875h8.678c-.03.291-.058.583-.085.875-.095 1.03-.193 2.338-.193 3.375 0 1.346.165 3.157.277 4.234v.006a.017.017 0 01-.005.007l-.002.003H4.169a.02.02 0 01-.007-.009v-.007c.112-1.077.277-2.888.277-4.234 0-1.037-.098-2.345-.192-3.375zM6.8 6.8a.85.85 0 01.85.85v5.1a.85.85 0 01-1.7 0v-5.1a.85.85 0 01.85-.85zm4.25.85a.85.85 0 00-1.7 0v5.1a.85.85 0 001.7 0v-5.1z" fill="#8B95AD"/></svg>
